client/src/styles/aperture.svg

<svg xmlns="http://www.w3.org/2000/svg" xml:space="preserve" style="fill-rule:evenodd;clip-rule:evenodd;stroke-linejoin:round;stroke-miterlimit:2" viewBox="0 0 500 500"><path d="M0 0h500v500H0z" style="fill:none"/><path d="M1715.83 223.75c79.17 0 143.75 64.583 143.75 143.75v1348.33c0 79.17-64.58 143.75-143.75 143.75H367.5c-79.167 0-143.75-64.58-143.75-143.75V367.5c0-79.167 64.583-143.75 143.75-143.75zm0-70.833H367.5c-118.75 0-214.583 96.25-214.583 214.583v1348.33c0 118.75 96.25 214.58 214.583 214.58h1348.33c118.75 0 214.58-96.25 214.58-214.58V367.5c0-118.75-95.83-214.583-214.58-214.583" style="fill:#566b8d;fill-rule:nonzero" transform="translate(.023 -.09)scale(.23992)"/><path d="M4685.93 101.674c82.12 0 148.79 66.673 148.79 148.795 0 82.123-66.67 148.796-148.79 148.796-82.13 0-148.8-66.673-148.8-148.796s66.67-148.795 148.8-148.795m18.22 268.292a120.9 120.9 0 0 0 79.16-47.921l-42.66-64.319zm-100.24-30.696a120.93 120.93 0 0 0 86.85 31.961l23.64-73.471zm186.51-28.039a120.92 120.92 0 0 0 12.34-91.71l-76.86-7.118zm-225.06-69.502a120.96 120.96 0 0 0 29.17 87.82l72.18-27.332zm232.19-37.64a120.9 120.9 0 0 0-65.52-65.341l-52.2 56.858zm-75.9-69.099a120.91 120.91 0 0 0-92.14 8.594l10.34 76.487zm-103.85 15.629a120.91 120.91 0 0 0-50.64 77.452l66.29 39.531z" style="fill:#566b8d" transform="translate(-4435.98 -.638)"/></svg>

<?xml version="1.0" encoding="UTF-8" standalone="no"?>
<!DOCTYPE svg PUBLIC "-//W3C//DTD SVG 1.1//EN" "http://www.w3.org/Graphics/SVG/1.1/DTD/svg11.dtd">
<svg width="100%" height="100%" viewBox="0 0 500 500" version="1.1" xmlns="http://www.w3.org/2000/svg" xmlns:xlink="http://www.w3.org/1999/xlink" xml:space="preserve" xmlns:serif="http://www.serif.com/" style="fill-rule:evenodd;clip-rule:evenodd;stroke-linejoin:round;stroke-miterlimit:2;">
    <g transform="matrix(1,0,0,1,-4435.98,-0.638161)">
        <g id="aperture" transform="matrix(1,0,0,1,4435.98,0.638161)">
            <rect x="0" y="0" width="500" height="500" style="fill:none;"/>
            <g>
                <g transform="matrix(0.239924,0,0,0.239924,0.0225514,-0.0898274)">
                    <path d="M1715.83,223.75C1795,223.75 1859.58,288.333 1859.58,367.5L1859.58,1715.83C1859.58,1795 1795,1859.58 1715.83,1859.58L367.5,1859.58C288.333,1859.58 223.75,1795 223.75,1715.83L223.75,367.5C223.75,288.333 288.333,223.75 367.5,223.75L1715.83,223.75M1715.83,152.917L367.5,152.917C248.75,152.917 152.917,249.167 152.917,367.5L152.917,1715.83C152.917,1834.58 249.167,1930.41 367.5,1930.41L1715.83,1930.41C1834.58,1930.41 1930.41,1834.16 1930.41,1715.83L1930.41,367.5C1930.41,248.75 1834.58,152.917 1715.83,152.917Z" style="fill:rgb(86,107,141);fill-rule:nonzero;"/>
                </g>
                <g transform="matrix(1,0,0,1,-4435.98,-0.638161)">
                    <path d="M4685.93,101.674C4768.05,101.674 4834.72,168.347 4834.72,250.469C4834.72,332.592 4768.05,399.265 4685.93,399.265C4603.8,399.265 4537.13,332.592 4537.13,250.469C4537.13,168.347 4603.8,101.674 4685.93,101.674ZM4704.15,369.966C4735.85,365.122 4764.32,347.884 4783.31,322.045L4740.65,257.726L4704.15,369.966ZM4603.91,339.27C4627.48,361.018 4658.72,372.515 4690.76,371.231L4714.4,297.76L4603.91,339.27ZM4790.42,311.231C4806.53,283.506 4810.97,250.517 4802.76,219.521L4725.9,212.403L4790.42,311.231ZM4565.36,241.729C4563.06,273.712 4573.55,305.302 4594.53,329.549L4666.71,302.217L4565.36,241.729ZM4797.55,204.089C4785.24,174.481 4761.67,150.978 4732.03,138.748L4679.83,195.606L4797.55,204.089ZM4721.65,134.99C4691.01,125.523 4657.87,128.615 4629.51,143.584L4639.85,220.071L4721.65,134.99ZM4617.8,150.619C4591.32,168.7 4573.1,196.56 4567.16,228.071L4633.45,267.602L4617.8,150.619Z" style="fill:rgb(86,107,141);"/>
                </g>
            </g>
        </g>
    </g>
</svg>
